X:90
T:Salterello
M:none
L:1/8
K:G
P:Prima pars
e2e ((3ded)e | A3 eA2 eA2 | ede cBc | d2e dec || d2e dcd | c2B cBc |
G3 dG2 dG2 | ede ((3cdc)d | ede B3 | c2B AGA | B6 | dcd ede | cBc cBc | d2e dec |
B2c AGA | BAB GFG | A6 | ede Be=f | ede B3 |1 [P:Aperto] cBc de=f | ede cBc | d2e dec |
edc Bcd | cBA BGA | HB6 :|2 [P:Chiusso] cBc d2e | d2c cBc | GFG A2B | cBc A3 | edc d2B |
c2e dcd | ede A2e | A2B c2B | A2A GFG | HA6 |: [P:Sechunda pars] a6 | a3 "\#"gf"\#"g | a"\#"ga e^de |
gfg cBc | de=f e3 | d2c B2d | cBc A3 | e3 e3 || d2e dcd | c2B cBc | G3 dG2 dG2 |
ede ((3cdc)d | ede B3 | c2B AGA | B6 | dcd ede | cBc cBc | d2e dec |
B2c AGA | BAB GFG | A6 | ede Be=f | ede B3 |1 [P:Aperto] cBc de=f | ede cBc | d2e dec |
edc Bcd | cBA BGA | HB6 :|2 [P:Chiusso] cBc d2e | d2c cBc | GFG A2B | cBc A3 | edc d2B | c2e dcd | 
ede A2e | A2B c2B | A2A GFG | HA6 |: [P:Terça pars] B6 | c2B c2A | B3 A3 | G2A GFG | E3 EDE | 
F2A GFG | A3 BAB | c2e dcd | ede A2e | ede A3 | e3 e3 || d2e dcd | c2B cBc |
G3 dG2 dG2 | ede ((3cdc)d | ede B3 | c2B AGA | B6 | dcd ede | cBc cBc | d2e dec |
B2c AGA | BAB GFG | A6 | ede Be=f | ede B3 |1 [P:Aperto] cBc de=f | ede cBc | d2e dec |
edc Bcd | cBA BGA | HB6 :|2 [P:Chiusso] cBc d2e | d2c cBc | GFG A2B | cBc A3 | edc d2B |
c2e dcd | ede A2e | A2B c2B | A2A GFG | HA6 |: [P:Quarta pars] ^G3 G3 | A2"\#"G ((3A"\#"GA)B | A2"\#"G A2B |
cBc A"\#"GA | ede cBc | A2B ^G2A | B3 A2B | cBc ABc | A3 c2d | ede cde | c2g f2a |
gfg e^de | A2c B2c | A2e d2e | c2g f2g | efg efg | a3 efg | d2e cde | B3 A2B |
c2B c2A | B3 A2B | cde B2c | cde B2c | ABc A^GA GFG | A3 A2B | c2c B2c |
A3 A2A | e3 e3 ||  d2e dcd | c2B cBc |
G3 dG2 dG2 | ede ((3cdc)d | ede B3 | c2B AGA | B6 | dcd ede | cBc cBc | d2e dec |
B2c AGA | BAB GFG | A6 | ede Be=f | ede B3 |1 [P:Aperto] cBc de=f | ede cBc | d2e dec |
edc Bcd | cBA BGA | HB6 :|2 [P:Chiusso] cBc d2e | d2c cBc | GFG A2B | cBc A3 | edc d2B |
c2e dcd | ede A2e | A2B c2B | A2A GFG | HA6 |]





